X: 2
T: Jovial Ken (Ken Park)
C: Donald Ridley
B: Roy Goldring "14 Social Dances"
P: Tune for "The Bartons' Reel"
R: reel
Z: 2015 John Chambers <jc:trillian.mit.edu>
M: 4/4
L: 1/8
K: F
% - - - - - - - - - - - - - - - - - - - - - - - - -
V: 1
z2 |\
"F"FCCF "F/C"A2FA | "F"cfef "Bb"dcde | "F/A"fcdB "F"AcFA | "Gm"BGAF "C7"E2DC |
"F"FCCF "F/C"A2FA | "F"cfef "Bb"dcde | "F/A"fc"Bb"dB "C7"cABG | "F"A2F2 F2 :|
|: GF |\
"C"ECCE "C7/E"G2FG | "F"AFFc "D7"c2Ac | "G"=Bcde "G7/D"fdBd | "C"c2C2 "C7/E"C2DE |
"F"FCCF "F/C"A2FA | "F"cfef "Bb"dcde | "F/A"fc"Bb"dB "C7"cABG | "F"A2F2 F2 :|
% - - - - - - - - - - - - - - - - - - - - - - - - -
V: 2 clef=bass middle=d
z2 |\
F2[f2c2] c2[a2f2] | f2[f'2c'2a2] B2[f'2d'2] | a2[f'2c'2] f2[c'2a2] | g2[d'2b2] c2[b2g2] |
F2[f2c2] c2[a2f2] | f2[f'2c'2a2] B2[f'2d'2] | a2b2 c'2c2 | [F2F6]c2 a2 :|
|: z2 |\
c2[g2e2] e2[c'2b2] | f2[c'2a2] d2[c'2^f2] | g2[d'2=b2] d2[b2g2] | c2g2 e2[c'2b2] |
f2a2 c2[c'2f2] | F2[f2c2] B2[b2f2] | A2B2 c2C2 | [F2F6]c2 a2 :|
